places/16/user-trash.svg

<?xml version="1.0" encoding="UTF-8" standalone="no"?>
<svg
   xmlns:dc="http://purl.org/dc/elements/1.1/"
   xmlns:cc="http://creativecommons.org/ns#"
   xmlns:rdf="http://www.w3.org/1999/02/22-rdf-syntax-ns#"
   xmlns:svg="http://www.w3.org/2000/svg"
   xmlns="http://www.w3.org/2000/svg"
   xmlns:xlink="http://www.w3.org/1999/xlink"
   version="1.1"
   width="16"
   height="16"
   id="svg3162">
  <defs
     id="defs3164">
    <linearGradient
       id="linearGradient4238">
      <stop
         offset="0"
         style="stop-color:#8d909a;stop-opacity:1;"
         id="stop4240" />
      <stop
         id="stop3792"
         style="stop-color:#e5e5e5;stop-opacity:1;"
         offset="0.39999998" />
      <stop
         offset="1"
         style="stop-color:#8d909a;stop-opacity:1;"
         id="stop4242" />
    </linearGradient>
    <linearGradient
       xlink:href="#linearGradient4238"
       id="linearGradient4746"
       gradientUnits="userSpaceOnUse"
       gradientTransform="matrix(0.45754817,0,0,0.47298439,-1.837284,-3.6558699)"
       spreadMethod="reflect"
       x1="10.572186"
       y1="26.410894"
       x2="32.427807"
       y2="26.410894" />
    <linearGradient
       xlink:href="#linearGradient3205-2-2-1"
       id="linearGradient3286-0-8"
       gradientUnits="userSpaceOnUse"
       gradientTransform="matrix(0.33333342,0.01405066,0,0.30511322,0.333331,0.88521945)"
       x1="24"
       y1="15.502284"
       x2="24"
       y2="45" />
    <linearGradient
       id="linearGradient3205-2-2-1">
      <stop
         id="stop3207-1-6-3"
         style="stop-color:#000000;stop-opacity:1"
         offset="0" />
      <stop
         id="stop3209-1-4-9"
         style="stop-color:#000000;stop-opacity:0"
         offset="1" />
    </linearGradient>
    <linearGradient
       xlink:href="#linearGradient3205-2-2-1"
       id="linearGradient4748-3-4"
       gradientUnits="userSpaceOnUse"
       gradientTransform="matrix(0.33333342,0.11166313,0,0.30309867,-4e-6,0.18933422)"
       x1="24"
       y1="13.506023"
       x2="24"
       y2="43" />
    <linearGradient
       xlink:href="#linearGradient3205-2-2-1"
       id="linearGradient3289-0-6"
       gradientUnits="userSpaceOnUse"
       gradientTransform="matrix(0.33333342,0.01405066,0,0.30511322,-0.333335,0.88521945)"
       x1="24"
       y1="15.502284"
       x2="24"
       y2="45" />
    <linearGradient
       y2="43"
       x2="24"
       y1="13.506023"
       x1="24"
       gradientTransform="matrix(0.33333337,0.11166313,0,0.30309867,-2e-8,-0.0262891)"
       gradientUnits="userSpaceOnUse"
       id="linearGradient5141"
       xlink:href="#linearGradient3205-2-2-1" />
    <linearGradient
       y2="28.903023"
       x2="32.180862"
       y1="13.828948"
       x1="32.180862"
       gradientTransform="matrix(0.72972969,0,0,0.72972969,-14.514409,-6.081971)"
       gradientUnits="userSpaceOnUse"
       id="linearGradient5227-8"
       xlink:href="#linearGradient4404-56-1-1" />
    <linearGradient
       id="linearGradient4404-56-1-1">
      <stop
         id="stop4406-5-6-9"
         style="stop-color:#ffffff;stop-opacity:1"
         offset="0" />
      <stop
         id="stop4408-9-5-4"
         style="stop-color:#ffffff;stop-opacity:0.23529412"
         offset="0.09090912" />
      <stop
         id="stop4410-63-5-2"
         style="stop-color:#ffffff;stop-opacity:0.15686275"
         offset="0.81818187" />
      <stop
         id="stop4412-0-6-0"
         style="stop-color:#ffffff;stop-opacity:0.39215687"
         offset="1" />
    </linearGradient>
    <linearGradient
       id="linearGradient4404-5-5-1">
      <stop
         id="stop4406-9-1-0"
         style="stop-color:#ffffff;stop-opacity:1"
         offset="0" />
      <stop
         id="stop4408-7-4-4"
         style="stop-color:#ffffff;stop-opacity:0.23529412"
         offset="0.09090912" />
      <stop
         id="stop4410-6-4-0"
         style="stop-color:#ffffff;stop-opacity:0.15686275"
         offset="0.81818187" />
      <stop
         id="stop4412-1-5-5"
         style="stop-color:#ffffff;stop-opacity:0.39215687"
         offset="1" />
    </linearGradient>
    <linearGradient
       y2="28.903023"
       x2="32.180862"
       y1="13.828948"
       x1="32.180862"
       gradientTransform="matrix(0.72972969,0,0,0.72972969,3.516668,-7.0913942)"
       gradientUnits="userSpaceOnUse"
       id="linearGradient5330"
       xlink:href="#linearGradient4404-5-5-1" />
    <linearGradient
       id="linearGradient4238-0">
      <stop
         offset="0"
         style="stop-color:#8d909a;stop-opacity:1"
         id="stop4240-2" />
      <stop
         offset="1"
         style="stop-color:#e5e5e5;stop-opacity:1"
         id="stop4242-27" />
    </linearGradient>
    <linearGradient
       xlink:href="#linearGradient4238-0"
       id="linearGradient5420"
       gradientUnits="userSpaceOnUse"
       gradientTransform="matrix(0.45754817,0,0,0.47298439,-1.837284,-3.6558699)"
       spreadMethod="reflect"
       x1="34.613369"
       y1="26.410894"
       x2="19.314434"
       y2="26.410894" />
  </defs>
  <metadata
     id="metadata3167">
    <rdf:RDF>
      <cc:Work
         rdf:about="">
        <dc:format>image/svg+xml</dc:format>
        <dc:type
           rdf:resource="http://purl.org/dc/dcmitype/StillImage" />
        <dc:title />
      </cc:Work>
    </rdf:RDF>
  </metadata>
  <g
     id="layer2"
     style="display:inline" />
  <g
     id="layer3">
    <path
       style="fill:url(#linearGradient4746);fill-opacity:1;fill-rule:nonzero;stroke:none;stroke-width:1.01884639000000021;marker:none;visibility:visible;display:inline;overflow:visible"
       id="path4744"
       d="m 3,4.03125 0,9.4375 C 3,13.620953 3.2258817,14.02174 4.03125,14.375 4.8366183,14.72826 6.137732,15 8,15 9.8622686,15 11.163382,14.72826 11.96875,14.375 12.774118,14.02174 13,13.620953 13,13.46875 l 0,-9.4375 -10,0 z"
       transform="matrix(1,0,0,1.0408342,0,-0.16461299)" />
    <path
       style="opacity:0.50000000000000000;color:#000000;fill:none;stroke:#161b28;stroke-width:1;stroke-linecap:butt;stroke-linejoin:miter;stroke-miterlimit:4;stroke-opacity:1;stroke-dasharray:none;stroke-dashoffset:0;marker:none;visibility:visible;display:inline;overflow:visible;enable-background:accumulate"
       d="m 2.5,3.5 0,10.5 c 0,0.828427 2.4624339,1.5 5.5,1.5 3.037566,0 5.5,-0.671573 5.5,-1.5 l 0,-10.5 z"
       id="path5019" />
    <path
       style="opacity:0.15;fill:url(#linearGradient5141);fill-opacity:1;fill-rule:nonzero;stroke:none;stroke-width:0.99992186;marker:none;visibility:visible;display:inline;overflow:visible;enable-background:accumulate"
       id="path3772-3-2"
       d="M 4.5,5.5748208 C 4.777,5.6676128 5,5.9450884 5,6.1969635 L 5,14.227251 C 5,14.479127 4.777,14.607198 4.5,14.514405 4.223,14.421615 4,14.144137 4,13.892262 L 4,5.861974 C 4,5.610099 4.223,5.4820286 4.5,5.5748208 z" />
    <path
       style="opacity:0.15;fill:url(#linearGradient4748-3-4);fill-opacity:1;fill-rule:nonzero;stroke:none;stroke-width:0.99992186;marker:none;visibility:visible;display:inline;overflow:visible;enable-background:accumulate"
       id="path3287-8-4"
       d="M 11.499999,5.7155823 C 11.222999,5.8083743 11,6.08585 11,6.3377249 l 0,8.0302881 c 0,0.251876 0.222999,0.379947 0.499999,0.287154 C 11.776999,14.562377 12,14.284899 12,14.033024 L 12,6.0027355 C 12,5.7508605 11.776999,5.6227901 11.499999,5.7155823 z" />
    <path
       style="opacity:0.3;fill:url(#linearGradient3289-0-6);fill-opacity:1;fill-rule:nonzero;stroke:none;stroke-width:0.99992186;marker:none;visibility:visible;display:inline;overflow:visible;enable-background:accumulate"
       id="path3778-2-1"
       d="M 6.5,5.9043505 C 6.777,5.9160275 7,6.1295473 7,6.3830964 L 7,14.46676 C 7,14.720309 6.777,14.91503 6.5,14.903353 6.223,14.891683 6,14.678156 6,14.424607 L 6,6.3409444 C 6,6.0873953 6.223,5.8926745 6.5,5.9043505 z" />
    <path
       style="opacity:0.3;fill:url(#linearGradient3286-0-8);fill-opacity:1;fill-rule:nonzero;stroke:none;stroke-width:0.99992186;marker:none;visibility:visible;display:inline;overflow:visible;enable-background:accumulate"
       id="path3293-9-3"
       d="M 9.5,5.9043505 C 9.222999,5.9160275 9,6.1295473 9,6.3830964 L 9,14.46676 c 0,0.253549 0.222999,0.44827 0.5,0.436593 0.277,-0.01167 0.500001,-0.225197 0.500001,-0.478746 l 0,-8.0836626 C 10.000001,6.0873953 9.777,5.8926745 9.5,5.9043505 z" />
    <path
       style="opacity:1;color:#000000;fill:none;stroke:url(#linearGradient5227-8);stroke-width:1;stroke-linecap:round;stroke-linejoin:round;stroke-miterlimit:4;stroke-opacity:1;stroke-dasharray:none;stroke-dashoffset:0;marker:none;visibility:visible;display:inline;overflow:visible;enable-background:accumulate"
       id="path5208"
       d="m 3.5,4.5 0,9.25 c 0.1473239,0.09118 0.4515636,0.259517 0.875,0.375 C 5.2475625,14.362972 6.5538323,14.5 8,14.5 c 1.4461677,0 2.752437,-0.137028 3.625,-0.375 0.423436,-0.115483 0.727676,-0.283818 0.875,-0.375 l 0,-9.25 -9,0 z" />
    <path
       style="opacity:0.5;color:#000000;fill:none;stroke:#161b28;stroke-width:1;stroke-linecap:butt;stroke-linejoin:miter;stroke-miterlimit:4;stroke-opacity:1;stroke-dasharray:none;stroke-dashoffset:0;marker:none;visibility:visible;display:inline;overflow:visible;enable-background:accumulate"
       d="M 8,1 C 4.4101492,1 1.5,1.8657221 1.5,2.9336444 l 0,1.9336444 c 0,1.0679223 2.9101492,1.9336443 6.5,1.9336443 3.589851,0 6.5,-0.865722 6.5,-1.9336443 l 0,-1.9336444 C 14.5,1.8657221 11.589851,1 8,1 z"
       id="path5019-9" />
    <path
       style="color:#000000;fill:url(#linearGradient5420);fill-opacity:1;fill-rule:nonzero;stroke:none;stroke-width:1.03944016;marker:none;visibility:visible;display:inline;overflow:visible;enable-background:accumulate"
       id="path5418"
       d="m 8,1.46875 c -1.7572026,0 -3.3544793,0.2196475 -4.46875,0.5625 -0.5571353,0.1714263 -0.9846671,0.3694792 -1.25,0.5625 C 2.0159171,2.7867708 1.96875,2.9230812 1.96875,3 l 0,2 c 0,0.076919 0.047167,0.2132292 0.3125,0.40625 0.2653329,0.1930208 0.6928647,0.3910737 1.25,0.5625 1.1142707,0.3428525 2.7115474,0.5625 4.46875,0.5625 1.7572027,0 3.354479,-0.2196475 4.46875,-0.5625 0.557135,-0.1714263 0.984667,-0.3694792 1.25,-0.5625 C 13.984083,5.2132292 14.03125,5.0769189 14.03125,5 l 0,-2 c 0,-0.076919 -0.04717,-0.2132292 -0.3125,-0.40625 -0.265333,-0.1930208 -0.692865,-0.3910737 -1.25,-0.5625 C 11.354479,1.6883975 9.7572027,1.46875 8,1.46875 z"
       transform="matrix(1,0,0,0.96682219,0,0.03317781)" />
    <path
       style="opacity:0.7;color:#000000;fill:none;stroke:url(#linearGradient5330);stroke-width:1.9328866;stroke-linecap:round;stroke-linejoin:round;stroke-miterlimit:4;stroke-opacity:1;stroke-dasharray:none;stroke-dashoffset:0;marker:none;visibility:visible;display:inline;overflow:visible;enable-background:accumulate"
       id="path4564-1-6"
       d="m 33,3.5 a 7,3.5 0 1 1 -14,0 7,3.5 0 1 1 14,0 z"
       transform="matrix(0.79112049,0,0,-0.33833318,-12.56502,4.3522834)" />
    <path
       style="color:#000000;fill:#dcdcdd;fill-opacity:1;fill-rule:nonzero;stroke:none;stroke-width:1.01884639000000021;marker:none;visibility:visible;display:inline;overflow:visible;enable-background:accumulate"
       d="M 6,0.5 C 5.723,0.5 5.5,0.723 5.5,1 l 0,2 c 0,0.277 0.223,0.5 0.5,0.5 l 2,0 C 7.723,3.5 7.5,3.277 7.5,3 7.5,2.723 7.723,2.5 8,2.5 8.277,2.5 8.5,2.723 8.5,3 8.5,3.277 8.277,3.5 8,3.5 l 2,0 c 0.277,0 0.5,-0.223 0.5,-0.5 l 0,-2 C 10.5,0.723 10.277,0.5 10,0.5 l -4,0 z"
       id="rect4605-2-4-3" />
    <path
       style="opacity:0.4;color:#000000;fill:none;stroke:#161b28;stroke-width:1;stroke-linecap:butt;stroke-linejoin:miter;stroke-miterlimit:4;stroke-opacity:1;stroke-dasharray:none;stroke-dashoffset:0;marker:none;visibility:visible;display:inline;overflow:visible;enable-background:accumulate"
       d="M 6,0.5 C 5.723,0.5 5.5,0.723 5.5,1 l 0,2 c 0,0.277 0.223,0.5 0.5,0.5 l 2,0 C 7.723,3.5 7.5,3.277 7.5,3 7.5,2.4990498 7.499049,2.5 8,2.5 8.476067,2.5 8.5,2.523933 8.5,3 8.5,3.277 8.277,3.5 8,3.5 l 2,0 c 0.277,0 0.5,-0.223 0.5,-0.5 l 0,-2 C 10.5,0.723 10.277,0.5 10,0.5 z"
       id="rect4605-3-9" />
  </g>
</svg>

<svg xmlns="http://www.w3.org/2000/svg" xmlns:xlink="http://www.w3.org/1999/xlink" viewBox="0 0 16 16"><defs><linearGradient id="a"><stop offset="0" stop-color="#8d909a"/><stop offset=".4" stop-color="#e5e5e5"/><stop offset="1" stop-color="#8d909a"/></linearGradient><linearGradient xlink:href="#a" id="f" gradientUnits="userSpaceOnUse" gradientTransform="matrix(.45755 0 0 .47298 -1.837 -3.656)" spreadMethod="reflect" x1="10.572" y1="26.411" x2="32.428" y2="26.411"/><linearGradient xlink:href="#b" id="j" gradientUnits="userSpaceOnUse" gradientTransform="matrix(.33333 .01405 0 .3051 .333 .885)" x1="24" y1="15.502" x2="24" y2="45"/><linearGradient id="b"><stop offset="0"/><stop offset="1" stop-opacity="0"/></linearGradient><linearGradient xlink:href="#b" id="h" gradientUnits="userSpaceOnUse" gradientTransform="matrix(.33333 .11166 0 .3031 0 .19)" x1="24" y1="13.506" x2="24" y2="43"/><linearGradient xlink:href="#b" id="i" gradientUnits="userSpaceOnUse" gradientTransform="matrix(.33333 .01405 0 .3051 -.333 .885)" x1="24" y1="15.502" x2="24" y2="45"/><linearGradient y2="43" x2="24" y1="13.506" x1="24" gradientTransform="matrix(.33333 .11166 0 .3031 0 -.026)" gradientUnits="userSpaceOnUse" id="g" xlink:href="#b"/><linearGradient y2="28.903" x2="32.181" y1="13.829" x1="32.181" gradientTransform="translate(-14.514 -6.082) scale(.72973)" gradientUnits="userSpaceOnUse" id="k" xlink:href="#c"/><linearGradient id="c"><stop offset="0" stop-color="#fff"/><stop offset=".091" stop-color="#fff" stop-opacity=".235"/><stop offset=".818" stop-color="#fff" stop-opacity=".157"/><stop offset="1" stop-color="#fff" stop-opacity=".392"/></linearGradient><linearGradient id="d"><stop offset="0" stop-color="#fff"/><stop offset=".091" stop-color="#fff" stop-opacity=".235"/><stop offset=".818" stop-color="#fff" stop-opacity=".157"/><stop offset="1" stop-color="#fff" stop-opacity=".392"/></linearGradient><linearGradient y2="28.903" x2="32.181" y1="13.829" x1="32.181" gradientTransform="translate(3.517 -7.09) scale(.72973)" gradientUnits="userSpaceOnUse" id="m" xlink:href="#d"/><linearGradient id="e"><stop offset="0" stop-color="#8d909a"/><stop offset="1" stop-color="#e5e5e5"/></linearGradient><linearGradient xlink:href="#e" id="l" gradientUnits="userSpaceOnUse" gradientTransform="matrix(.45755 0 0 .47298 -1.837 -3.656)" spreadMethod="reflect" x1="34.613" y1="26.411" x2="19.314" y2="26.411"/></defs><path d="M3 4.03v9.44c0 .15.226.552 1.03.905.808.353 2.11.625 3.97.625s3.163-.272 3.97-.625c.804-.353 1.03-.754 1.03-.906V4.03H3z" transform="matrix(1 0 0 1.04083 0 -.165)" fill="url(#f)" overflow="visible"/><path d="M2.5 3.5V14c0 .828 2.462 1.5 5.5 1.5s5.5-.672 5.5-1.5V3.5z" opacity=".5" color="#000" fill="none" stroke="#161b28" overflow="visible"/><path d="M4.5 5.575c.277.093.5.37.5.622v8.03c0 .252-.223.38-.5.287-.277-.092-.5-.37-.5-.622v-8.03c0-.252.223-.38.5-.287z" opacity=".15" fill="url(#g)" overflow="visible"/><path d="M11.5 5.716c-.277.092-.5.37-.5.622v8.03c0 .252.223.38.5.287.277-.093.5-.37.5-.622v-8.03c0-.252-.223-.38-.5-.287z" opacity=".15" fill="url(#h)" overflow="visible"/><path d="M6.5 5.904c.277.012.5.226.5.48v8.083c0 .253-.223.448-.5.436-.277-.01-.5-.225-.5-.478V6.34c0-.253.223-.447.5-.436z" opacity=".3" fill="url(#i)" overflow="visible"/><path d="M9.5 5.904c-.277.012-.5.226-.5.48v8.083c0 .253.223.448.5.436.277-.01.5-.225.5-.478V6.34c0-.253-.223-.447-.5-.436z" opacity=".3" fill="url(#j)" overflow="visible"/><path d="M3.5 4.5v9.25c.147.09.452.26.875.375.873.238 2.18.375 3.625.375 1.446 0 2.752-.137 3.625-.375.423-.115.728-.284.875-.375V4.5h-9z" color="#000" fill="none" stroke="url(#k)" stroke-linecap="round" stroke-linejoin="round" overflow="visible"/><path d="M8 1c-3.59 0-6.5.866-6.5 1.934v1.933C1.5 5.935 4.41 6.8 8 6.8s6.5-.865 6.5-1.933V2.934C14.5 1.866 11.59 1 8 1z" opacity=".5" color="#000" fill="none" stroke="#161b28" overflow="visible"/><path d="M8 1.47c-1.757 0-3.354.218-4.47.56-.556.173-.983.37-1.25.564-.264.193-.31.33-.31.406v2c0 .077.046.213.31.406.267.193.694.39 1.25.563 1.116.34 2.713.56 4.47.56 1.757 0 3.354-.22 4.47-.56.556-.175.983-.37 1.25-.566.264-.193.31-.33.31-.406V3c0-.077-.046-.213-.31-.406-.267-.193-.694-.39-1.25-.563-1.116-.34-2.713-.56-4.47-.56z" transform="matrix(1 0 0 .96682 0 .033)" color="#000" fill="url(#l)" overflow="visible"/><path d="M33 3.5a7 3.5 0 1 1-14 0 7 3.5 0 1 1 14 0z" transform="matrix(.79112 0 0 -.33833 -12.565 4.352)" opacity=".7" color="#000" fill="none" stroke="url(#m)" stroke-width="1.933" stroke-linecap="round" stroke-linejoin="round" overflow="visible"/><path d="M6 .5a.5.5 0 0 0-.5.5v2a.5.5 0 0 0 .5.5h2a.5.5 0 0 1 0-1 .5.5 0 0 1 0 1h2a.5.5 0 0 0 .5-.5V1a.5.5 0 0 0-.5-.5H6z" color="#000" fill="#dcdcdd" overflow="visible"/><path d="M6 .5a.5.5 0 0 0-.5.5v2a.5.5 0 0 0 .5.5h2a.5.5 0 0 1-.5-.5c0-.5 0-.5.5-.5.476 0 .5.024.5.5a.5.5 0 0 1-.5.5h2a.5.5 0 0 0 .5-.5V1a.5.5 0 0 0-.5-.5z" opacity=".4" color="#000" fill="none" stroke="#161b28" overflow="visible"/></svg>
